assets/vuetify/mono.svg

<svg viewBox="0 0 24 24" xmlns="http://www.w3.org/2000/svg"><path d="m6.312 12.564 6.324-11.364h-12.636zm8.628-11.364-7.476 13.44 4.536 8.16 12-21.6zm4.98 2.4-7.92 14.256-1.788-3.216 6.132-11.04zm-13.608 4.02-2.232-4.02h4.476z"/></svg>

<svg xmlns="http://www.w3.org/2000/svg" viewBox="0 0 24 24"><path d="M6.312 12.564 12.636 1.2H0zM14.94 1.2 7.464 14.64 12 22.8 24 1.2zm4.98 2.4L12 17.856l-1.788-3.216L16.344 3.6zM6.312 7.62 4.08 3.6h4.476z"/></svg>
